projects/oblique/icons/Printer.svg

<?xml version="1.0" encoding="UTF-8"?><svg id="a" xmlns="http://www.w3.org/2000/svg" viewBox="0 0 24 24"><path d="M17.11789,13.8348c.76172,0,1.38184-.61914,1.38184-1.38086s-.62012-1.38184-1.38184-1.38184-1.38086.62012-1.38086,1.38184.61914,1.38086,1.38086,1.38086ZM17.11789,12.3348c.06543,0,.11914.05371.11914.11914,0,.13086-.2373.13086-.2373,0,0-.06543.05273-.11914.11816-.11914ZM20.74973,8.8221h-3.46387V1.24984H6.71359v7.57227h-3.46387v11.49902h3.46387v2.42871h10.57227v-2.42871h3.46387v-11.49902ZM8.21359,2.74984h7.57227v6.07227h-7.57227V2.74984ZM8.21359,21.24984v-4.66504h7.57227v4.66504h-7.57227ZM19.24973,18.82113h-1.96387v-2.23633h1.21387v-1.5H5.49973v1.5h1.21387v2.23633h-1.96387v-8.49902h14.5v8.49902ZM8.96359,17.04183h6.07227v1.5h-6.07227v-1.5ZM8.96359,19.29183h6.07227v1.5h-6.07227v-1.5Z"/></svg>

<svg xmlns="http://www.w3.org/2000/svg" viewBox="0 0 24 24"><title>Printer</title><path d="M17.11789,13.8348A1.38135,1.38135,0,1,0,15.737,12.45394,1.38286,1.38286,0,0,0,17.11789,13.8348Zm0-1.5a.11962.11962,0,0,1,.11914.11914c0,.13086-.2373.13086-.2373,0A.11878.11878,0,0,1,17.11789,12.3348Z" fill="#171717"/><path d="M20.74973,8.8221H17.28586V1.24984H6.71359V8.8221H3.24973v11.499H6.71359v2.42871H17.28586V20.32113h3.46387ZM8.21359,2.74984h7.57227V8.8221H8.21359Zm0,18.5v-4.665h7.57227v4.665Zm11.03614-2.42871H17.28586V16.5848h1.21387v-1.5h-13v1.5H6.71359v2.23633H4.74973v-8.499h14.5Z" fill="#171717"/><rect x="8.96359" y="17.04183" width="6.07227" height="1.5" fill="#171717"/><rect x="8.96359" y="19.29183" width="6.07227" height="1.5" fill="#171717"/></svg>
